Tests/PresetCoreTests/Fixtures/XMP/basic-hsl-curve.xmp
<?xpacket begin="﻿" id="W5M0MpCehiHzreSzNTczkc9d"?>
<x:xmpmeta xmlns:x="adobe:ns:meta/" x:xmptk="Adobe XMP Core 6.0-c000 (synthetic fixture)">
 <rdf:RDF xmlns:rdf="http://www.w3.org/1999/02/22-rdf-syntax-ns#">
  <rdf:Description rdf:about=""
    xmlns:crs="http://ns.adobe.com/camera-raw-settings/1.0/"
    crs:Version="17.0"
    crs:ProcessVersion="15.4"
    crs:WhiteBalance="Custom"
    crs:HasSettings="True"
    crs:PresetType="Normal"
    crs:Temperature="5500"
    crs:Tint="+11"
    crs:Exposure2012="+0.75"
    crs:Vibrance="+20"
    crs:Saturation="-5"
    crs:Contrast2012="+15"
    crs:Highlights2012="-30"
    crs:Shadows2012="+25"
    crs:Whites2012="+10"
    crs:Blacks2012="-10"
    crs:HueAdjustmentRed="-20"
    crs:SaturationAdjustmentRed="+15"
    crs:LuminanceAdjustmentRed="-5"
    crs:HueAdjustmentOrange="+5"
    crs:SaturationAdjustmentOrange="-10"
    crs:LuminanceAdjustmentOrange="+10"
    crs:HueAdjustmentYellow="+10"
    crs:SaturationAdjustmentYellow="+20"
    crs:LuminanceAdjustmentYellow="-15"
    crs:HueAdjustmentGreen="-5"
    crs:SaturationAdjustmentGreen="-20"
    crs:LuminanceAdjustmentGreen="+5"
    crs:HueAdjustmentAqua="+15"
    crs:SaturationAdjustmentAqua="+10"
    crs:LuminanceAdjustmentAqua="-10"
    crs:HueAdjustmentBlue="-10"
    crs:SaturationAdjustmentBlue="+5"
    crs:LuminanceAdjustmentBlue="+20"
    crs:HueAdjustmentPurple="+20"
    crs:SaturationAdjustmentPurple="-5"
    crs:LuminanceAdjustmentPurple="-20"
    crs:HueAdjustmentMagenta="-15"
    crs:SaturationAdjustmentMagenta="-15"
    crs:LuminanceAdjustmentMagenta="+15"
    crs:SplitToningShadowHue="210"
    crs:SplitToningShadowSaturation="15"
    crs:SplitToningHighlightHue="50"
    crs:SplitToningHighlightSaturation="10"
    crs:SplitToningBalance="-5"
    crs:Sharpness="40"
    crs:SharpenRadius="1.0"
    crs:SharpenDetail="25"
    crs:SharpenEdgeMasking="0"
    crs:LuminanceSmoothing="0"
    crs:ColorNoiseReduction="25"
    crs:PostCropVignetteAmount="-25"
    crs:PostCropVignetteMidpoint="50"
    crs:PostCropVignetteFeather="50"
    crs:PostCropVignetteRoundness="0"
    crs:GrainAmount="25"
    crs:GrainSize="25"
    crs:GrainFrequency="50"
    crs:CameraProfile="Adobe Color">
   <crs:Name>
    <rdf:Alt>
     <rdf:li xml:lang="x-default">LumaHarbor Fixture Full</rdf:li>
    </rdf:Alt>
   </crs:Name>
   <crs:ToneCurvePV2012>
    <rdf:Seq>
     <rdf:li>0, 0</rdf:li>
     <rdf:li>64, 80</rdf:li>
     <rdf:li>192, 176</rdf:li>
     <rdf:li>255, 255</rdf:li>
    </rdf:Seq>
   </crs:ToneCurvePV2012>
  </rdf:Description>
 </rdf:RDF>
</x:xmpmeta>
<?xpacket end="w"?>
