Tests/PresetCoreTests/Fixtures/XMP/subset-basic.xmp
<?xpacket begin="﻿" id="W5M0MpCehiHzreSzNTczkc9d"?>
<x:xmpmeta xmlns:x="adobe:ns:meta/" x:xmptk="Adobe XMP Core 6.0-c000 (synthetic fixture)">
 <rdf:RDF xmlns:rdf="http://www.w3.org/1999/02/22-rdf-syntax-ns#">
  <rdf:Description rdf:about=""
    xmlns:crs="http://ns.adobe.com/camera-raw-settings/1.0/"
    crs:Version="17.0"
    crs:ProcessVersion="15.4"
    crs:WhiteBalance="Custom"
    crs:Temperature="5500"
    crs:Tint="+11"
    crs:Exposure2012="+0.50"
    crs:Contrast2012="+10"
    crs:HasSettings="True"
    crs:PresetType="Normal">
   <crs:Name>
    <rdf:Alt>
     <rdf:li xml:lang="x-default">LumaHarbor Fixture Subset</rdf:li>
    </rdf:Alt>
   </crs:Name>
  </rdf:Description>
 </rdf:RDF>
</x:xmpmeta>
<?xpacket end="w"?>
